src/icons/IconDownload/IconDownload_size_s.svg

<svg viewBox="0 0 16 16" xmlns="http://www.w3.org/2000/svg">
  <path d="M15 15V13H1V15H15Z" />
  <path
    d="M11.535 5.05965L8.99379 7.5942L9.0059 1H7.0059L6.9938 7.59421L4.46463 5.05965L3.05041 6.47386L7.99379 11.4226L12.9492 6.47386L11.535 5.05965Z"
  />
</svg>

<svg viewBox="0 0 16 16" xmlns="http://www.w3.org/2000/svg">
  <path
    d="M15 15v-2H1v2h14zM11.535 5.06L8.994 7.594 9.006 1h-2l-.012 6.594-2.53-2.534L3.05 6.474l4.944 4.949 4.955-4.95-1.414-1.413z"
  />
</svg>
